src/assets/images/msg.svg

<svg fill="none" height="18" viewBox="0 0 19 18" width="19" xmlns="http://www.w3.org/2000/svg"><path d="m14.1859.103027h-9.56085c-2.22988 0-4.044972 1.839963-4.044972 4.102063v6.71251c0 2.2621 1.815092 4.102 4.044972 4.102h.91196l2.64762 2.2606c.35228.317.79355.4736 1.23114.4736.42803 0 .85163-.1506 1.18113-.4475l2.7271-2.2867h.8619c2.2299 0 4.045-1.8399 4.045-4.102v-6.71251c0-2.2621-1.8151-4.102063-4.045-4.102063zm1.8386 10.814573c0 1.0277-.8244 1.8645-1.8386 1.8645h-1.2591c-.2567 0-.5052.091-.7031.2566l-2.81528 2.362-2.7572-2.3553c-.19931-.17-.45083-.2633-.71118-.2633h-1.31499c-1.01418 0-1.83862-.8368-1.83862-1.8645v-6.71251c0-1.02775.82444-1.86458 1.83862-1.86458h9.56085c1.0142 0 1.8386.83683 1.8386 1.86458zm-5.5159-2.98337c0 .61755-.4942 1.11875-1.10313 1.11875-.60895 0-1.10317-.5012-1.10317-1.11875 0-.61754.49422-1.11874 1.10317-1.11874.60893 0 1.10313.5012 1.10313 1.11874zm3.6773 0c0 .61755-.4942 1.11875-1.1032 1.11875-.6089 0-1.1032-.5012-1.1032-1.11875 0-.61754.4943-1.11874 1.1032-1.11874.609 0 1.1032.5012 1.1032 1.11874zm-7.3545 0c0 .61755-.49422 1.11875-1.10317 1.11875-.60896 0-1.10318-.5012-1.10318-1.11875 0-.61754.49422-1.11874 1.10318-1.11874.60895 0 1.10317.5012 1.10317 1.11874z" fill="#fff"/></svg>

<svg width="19" height="18" viewBox="0 0 19 18" fill="none" xmlns="http://www.w3.org/2000/svg">
<path d="M14.1859 0.103027H4.62505C2.39517 0.103027 0.580078 1.94299 0.580078 4.20509V10.9176C0.580078 13.1797 2.39517 15.0196 4.62505 15.0196H5.53701L8.18463 17.2802C8.53691 17.5972 8.97818 17.7538 9.41577 17.7538C9.8438 17.7538 10.2674 17.6032 10.5969 17.3063L13.324 15.0196H14.1859C16.4158 15.0196 18.2309 13.1797 18.2309 10.9176V4.20509C18.2309 1.94299 16.4158 0.103027 14.1859 0.103027ZM16.0245 10.9176C16.0245 11.9453 15.2001 12.7821 14.1859 12.7821H12.9268C12.6701 12.7821 12.4216 12.8731 12.2237 13.0387L9.40842 15.4007L6.65122 13.0454C6.45191 12.8754 6.20039 12.7821 5.94004 12.7821H4.62505C3.61087 12.7821 2.78643 11.9453 2.78643 10.9176V4.20509C2.78643 3.17734 3.61087 2.34051 4.62505 2.34051H14.1859C15.2001 2.34051 16.0245 3.17734 16.0245 4.20509V10.9176ZM10.5086 7.93423C10.5086 8.55178 10.0144 9.05298 9.40547 9.05298C8.79652 9.05298 8.3023 8.55178 8.3023 7.93423C8.3023 7.31669 8.79652 6.81549 9.40547 6.81549C10.0144 6.81549 10.5086 7.31669 10.5086 7.93423ZM14.1859 7.93423C14.1859 8.55178 13.6917 9.05298 13.0827 9.05298C12.4738 9.05298 11.9795 8.55178 11.9795 7.93423C11.9795 7.31669 12.4738 6.81549 13.0827 6.81549C13.6917 6.81549 14.1859 7.31669 14.1859 7.93423ZM6.8314 7.93423C6.8314 8.55178 6.33718 9.05298 5.72823 9.05298C5.11927 9.05298 4.62505 8.55178 4.62505 7.93423C4.62505 7.31669 5.11927 6.81549 5.72823 6.81549C6.33718 6.81549 6.8314 7.31669 6.8314 7.93423Z" fill="white"/>
</svg>
